images/decision/1.svg

<svg width="89" height="80" viewBox="0 0 89 80" fill="none" xmlns="http://www.w3.org/2000/svg">
<path d="M69 52.3668C69 70.8575 54.4962 80 35.8019 80C17.1076 80 0 65.6542 0 47.1635C0 28.6727 9.11321 22.7498 17.5755 22.7495C25.6702 22.7495 32.7759 30.3737 39.7075 33.695C48.7841 38.0441 69 41.8827 69 52.3668Z" fill="#F09642"/>
<g clip-path="url(#clip0)">
<path d="M87.8017 25.4571L81.0918 24.7204C80.6097 23.1562 79.9748 21.6422 79.196 20.1998L83.4129 14.9867C83.8433 14.4539 83.8001 13.6863 83.3127 13.204L75.6509 5.6336C75.1632 5.15154 74.3872 5.10884 73.8485 5.53453L68.5779 9.7041C67.1196 8.93385 65.5889 8.30575 64.0076 7.82896L63.2627 1.19217C63.1868 0.513459 62.607 0 61.9168 0H51.0835C50.3932 0 49.8133 0.513459 49.7374 1.19204L48.9925 7.82218C47.4112 8.29909 45.8805 8.92707 44.4222 9.69732L39.1518 5.52637C38.6131 5.10068 37.837 5.14338 37.3494 5.62544L29.6875 13.204C29.2005 13.6867 29.158 14.4543 29.5886 14.9867L33.811 20.1998C33.0322 21.6422 32.3972 23.1562 31.9152 24.7204L25.2053 25.4571C24.5191 25.5322 24 26.1056 24 26.7884V37.5037C24 38.1864 24.5191 38.76 25.2052 38.8351L31.9083 39.5718C32.3905 41.136 33.0254 42.65 33.8041 44.0924L29.5872 49.3055C29.1568 49.8383 29.2 50.6059 29.6874 51.0882L37.3493 58.6666C37.8391 59.1463 38.615 59.1855 39.1516 58.7577L44.4221 54.5881C45.8804 55.3584 47.4111 55.9865 48.9924 56.4632L49.7373 63.1C49.8132 63.7786 50.393 64.2922 51.0833 64.2921H61.9167C62.6046 64.2924 63.1835 63.7826 63.2627 63.1067L64.0076 56.4699C65.5889 55.993 67.1196 55.365 68.5779 54.5948L73.8484 58.7657C74.387 59.1914 75.1631 59.1487 75.6507 58.6666L83.3045 51.0882C83.7919 50.6059 83.835 49.8383 83.4047 49.3055L79.1892 44.0924C79.9679 42.65 80.6029 41.136 81.085 39.5718L87.7948 38.8351C88.4809 38.76 89.0001 38.1866 89 37.5037V26.7884C89.0005 26.1079 88.4851 25.5353 87.8017 25.4571ZM86.2921 36.305L79.8907 37.0096C79.3354 37.0706 78.8751 37.4626 78.7315 37.9967C78.21 39.9437 77.4279 41.813 76.4064 43.5553C76.1257 44.0335 76.1709 44.6331 76.5201 45.0648L80.546 50.0421L74.5999 55.9234L69.5679 51.9413C69.1314 51.5959 68.5252 51.5512 68.0418 51.8288C66.2803 52.8393 64.3903 53.6127 62.4219 54.1286C61.882 54.2705 61.4856 54.726 61.424 55.2752L60.7116 61.6134H52.3022L51.5832 55.2752C51.5215 54.726 51.1251 54.2707 50.5852 54.1286C48.6168 53.6128 46.7268 52.8393 44.9653 51.8288C44.4819 51.5512 43.8757 51.5959 43.4392 51.9413L38.4072 55.9234L32.4611 50.0421L36.487 45.0715C36.8363 44.6398 36.8815 44.0402 36.6008 43.562C35.5792 41.8197 34.7973 39.9503 34.2756 38.0033C34.1321 37.4693 33.6717 37.0773 33.1164 37.0162L26.7084 36.3117V27.9939L33.1164 27.2826C33.6717 27.2216 34.132 26.8296 34.2756 26.2955C34.7971 24.3485 35.5792 22.4792 36.6008 20.7369C36.8815 20.2587 36.8363 19.6591 36.487 19.2274L32.4611 14.2501L38.4072 8.36879L43.4461 12.3509C43.8826 12.6963 44.4888 12.741 44.9722 12.4634C46.7337 11.4529 48.6236 10.6795 50.592 10.1636C51.132 10.0217 51.5283 9.56623 51.59 9.01698L52.3024 2.6788H60.705L61.4174 9.01698C61.479 9.56623 61.8754 10.0215 62.4153 10.1636C64.3837 10.6794 66.2737 11.4529 68.0352 12.4634C68.5186 12.741 69.1248 12.6963 69.5613 12.3509L74.5933 8.36879L80.5394 14.2569L76.5135 19.2342C76.1643 19.6659 76.1191 20.2655 76.3997 20.7437C77.4213 22.4859 78.2033 24.3553 78.7249 26.3023C78.8684 26.8363 79.3288 27.2284 79.8841 27.2894L86.2921 27.994V36.305Z" fill="#FFFEFC"/>
<path d="M86.2921 36.305L79.8907 37.0096C79.3354 37.0706 78.8751 37.4626 78.7315 37.9967C78.21 39.9437 77.4279 41.813 76.4064 43.5553C76.1257 44.0335 76.1709 44.6331 76.5201 45.0648L80.546 50.0421L74.5999 55.9234L69.5679 51.9413C69.1314 51.5959 68.5252 51.5512 68.0418 51.8288C66.2803 52.8393 64.3903 53.6127 62.4219 54.1286C61.882 54.2705 61.4856 54.726 61.424 55.2752L60.7116 61.6134H52.3022L51.5832 55.2752C51.5215 54.726 51.1251 54.2707 50.5852 54.1286C48.6168 53.6128 46.7268 52.8393 44.9653 51.8288C44.4819 51.5512 43.8757 51.5959 43.4392 51.9413L38.4072 55.9234L32.4611 50.0421L36.487 45.0715C36.8363 44.6398 36.8815 44.0402 36.6008 43.562C35.5792 41.8197 34.7973 39.9503 34.2756 38.0033C34.1321 37.4693 33.6717 37.0773 33.1164 37.0162L26.7084 36.3117V27.9939L33.1164 27.2826C33.6717 27.2216 34.132 26.8296 34.2756 26.2955C34.7971 24.3485 35.5792 22.4792 36.6008 20.7369C36.8815 20.2587 36.8363 19.6591 36.487 19.2274L32.4611 14.2501L38.4072 8.36879L43.4461 12.3509C43.8826 12.6963 44.4888 12.741 44.9722 12.4634C46.7337 11.4529 48.6236 10.6795 50.592 10.1636C51.132 10.0217 51.5283 9.56623 51.59 9.01698L52.3024 2.6788H60.705L61.4174 9.01698C61.479 9.56623 61.8754 10.0215 62.4153 10.1636C64.3837 10.6794 66.2737 11.4529 68.0352 12.4634C68.5186 12.741 69.1248 12.6963 69.5613 12.3509L74.5933 8.36879L80.5394 14.2569L76.5135 19.2342C76.1643 19.6659 76.1191 20.2655 76.3997 20.7437C77.4213 22.4859 78.2033 24.3553 78.7249 26.3023C78.8684 26.8363 79.3288 27.2284 79.8841 27.2894L86.2921 27.994V36.305Z" fill="#FFFEFC"/>
<path d="M73.0422 22.9899C67.9295 13.952 56.3779 10.7247 47.2406 15.7816C38.1032 20.8385 34.8404 32.2645 39.9531 41.3023C40.0136 41.4092 40.0886 41.5074 40.1762 41.5942C40.7046 42.1177 41.5621 42.1183 42.0913 41.5957L50.9381 32.8453L54.0634 36.968C54.1019 37.0186 54.1438 37.0666 54.1891 37.1113C54.718 37.6344 55.5753 37.6344 56.1042 37.1113L64.6259 28.6823V33.4856H67.3342V25.449H67.334C67.334 24.7094 66.7279 24.1098 65.9801 24.1096H57.8551V26.7884H62.7112L55.2931 34.1257L52.1676 30.003C51.9328 29.6911 51.5725 29.4955 51.1804 29.4672C50.7888 29.4437 50.4056 29.5865 50.1268 29.8596L41.517 38.3744C39.1889 32.8939 40.1157 26.5892 43.9254 21.9914C49.6033 15.1389 59.8224 14.1365 66.7505 19.7526C73.6785 25.3687 74.6919 35.4765 69.014 42.3291C68.4906 42.9606 67.9286 43.5421 67.3344 44.0737V36.1644H64.6259V46.0303C63.7581 46.5295 62.8511 46.9441 61.9176 47.2723V38.8432H59.2093V47.972C58.315 48.1232 57.4088 48.2006 56.501 48.2027V42.8614H53.7927V47.9851C52.8774 47.8345 51.9712 47.605 51.0845 47.2963V40.1826H48.3759V46.0636C47.619 45.6313 46.887 45.1337 46.1889 44.5679L44.4678 46.6373C47.8605 49.3903 52.1126 50.8959 56.5009 50.8981C59.7411 50.8976 62.927 50.0756 65.7547 48.5106C74.892 43.4537 78.1548 32.0277 73.0422 22.9899Z" fill="#39379F"/>
</g>
<defs>
<clipPath id="clip0">
<rect width="65" height="64.2921" fill="white" transform="translate(24)"/>
</clipPath>
</defs>
</svg>

<svg width="89" height="80" fill="none" xmlns="http://www.w3.org/2000/svg"><path d="M69 52.367C69 70.857 54.496 80 35.802 80 17.108 80 0 65.654 0 47.163 0 28.674 9.113 22.75 17.576 22.75c8.094 0 15.2 7.624 22.132 10.945C48.784 38.045 69 41.883 69 52.367Z" fill="#F09642"/><g clip-path="url(#a)"><path d="m87.802 25.457-6.71-.737a25.035 25.035 0 0 0-1.896-4.52l4.217-5.213c.43-.533.387-1.3-.1-1.783l-7.662-7.57a1.365 1.365 0 0 0-1.802-.1l-5.271 4.17a25.625 25.625 0 0 0-4.57-1.875l-.745-6.637A1.349 1.349 0 0 0 61.917 0H51.083c-.69 0-1.27.513-1.346 1.192l-.745 6.63a25.634 25.634 0 0 0-4.57 1.875l-5.27-4.17a1.365 1.365 0 0 0-1.803.098l-7.661 7.579a1.329 1.329 0 0 0-.1 1.783l4.223 5.213a25.028 25.028 0 0 0-1.896 4.52l-6.71.737A1.345 1.345 0 0 0 24 26.788v10.716c0 .682.52 1.256 1.205 1.331l6.703.737a25.05 25.05 0 0 0 1.896 4.52l-4.217 5.214c-.43.532-.387 1.3.1 1.782l7.662 7.579c.49.48 1.266.518 1.803.09l5.27-4.169a25.615 25.615 0 0 0 4.57 1.875l.745 6.637a1.349 1.349 0 0 0 1.346 1.192h10.834a1.35 1.35 0 0 0 1.346-1.185l.745-6.637a25.637 25.637 0 0 0 4.57-1.875l5.27 4.17a1.365 1.365 0 0 0 1.803-.098l7.654-7.579c.487-.482.53-1.25.1-1.782l-4.216-5.214a25.042 25.042 0 0 0 1.896-4.52l6.71-.737A1.345 1.345 0 0 0 89 37.504V26.788c0-.68-.515-1.253-1.198-1.33Zm-1.51 10.848-6.401.705a1.35 1.35 0 0 0-1.16.987 22.5 22.5 0 0 1-2.325 5.558 1.328 1.328 0 0 0 .114 1.51l4.026 4.977-5.946 5.881-5.032-3.982a1.366 1.366 0 0 0-1.526-.112 23.026 23.026 0 0 1-5.62 2.3c-.54.142-.936.597-.998 1.146l-.712 6.338h-8.41l-.719-6.338a1.344 1.344 0 0 0-.998-1.146 23.022 23.022 0 0 1-5.62-2.3 1.366 1.366 0 0 0-1.526.112l-5.032 3.982-5.946-5.88 4.026-4.971c.35-.432.395-1.032.114-1.51a22.505 22.505 0 0 1-2.325-5.559 1.35 1.35 0 0 0-1.16-.987l-6.408-.704v-8.318l6.408-.711a1.35 1.35 0 0 0 1.16-.988 22.497 22.497 0 0 1 2.325-5.558 1.328 1.328 0 0 0-.114-1.51l-4.026-4.977 5.946-5.881 5.04 3.982c.436.345 1.042.39 1.525.112a23.025 23.025 0 0 1 5.62-2.3c.54-.141.936-.597.998-1.146l.712-6.338h8.403l.712 6.338c.062.55.458 1.005.998 1.147a23.022 23.022 0 0 1 5.62 2.3c.484.277 1.09.232 1.526-.113l5.032-3.982 5.946 5.888-4.026 4.977a1.328 1.328 0 0 0-.113 1.51 22.499 22.499 0 0 1 2.325 5.558 1.35 1.35 0 0 0 1.16.987l6.407.705v8.311Z" fill="#FFFEFC"/><path d="m86.292 36.305-6.401.705a1.35 1.35 0 0 0-1.16.987 22.5 22.5 0 0 1-2.325 5.558 1.328 1.328 0 0 0 .114 1.51l4.026 4.977-5.946 5.881-5.032-3.982a1.366 1.366 0 0 0-1.526-.112 23.026 23.026 0 0 1-5.62 2.3c-.54.142-.936.597-.998 1.146l-.712 6.338h-8.41l-.719-6.338a1.344 1.344 0 0 0-.998-1.146 23.022 23.022 0 0 1-5.62-2.3 1.366 1.366 0 0 0-1.526.112l-5.032 3.982-5.946-5.88 4.026-4.971c.35-.432.395-1.032.114-1.51a22.505 22.505 0 0 1-2.325-5.559 1.35 1.35 0 0 0-1.16-.987l-6.408-.704v-8.318l6.408-.711a1.35 1.35 0 0 0 1.16-.988 22.497 22.497 0 0 1 2.325-5.558 1.328 1.328 0 0 0-.114-1.51l-4.026-4.977 5.946-5.881 5.04 3.982c.436.345 1.042.39 1.525.112a23.025 23.025 0 0 1 5.62-2.3c.54-.141.936-.597.998-1.146l.712-6.338h8.403l.712 6.338c.062.55.458 1.005.998 1.147a23.022 23.022 0 0 1 5.62 2.3c.484.277 1.09.232 1.526-.113l5.032-3.982 5.946 5.888-4.026 4.977a1.328 1.328 0 0 0-.113 1.51 22.499 22.499 0 0 1 2.325 5.558 1.35 1.35 0 0 0 1.16.987l6.407.705v8.311Z" fill="#FFFEFC"/><path d="M73.042 22.99c-5.112-9.038-16.664-12.265-25.801-7.208-9.138 5.056-12.4 16.483-7.288 25.52a1.365 1.365 0 0 0 2.138.293l8.847-8.75 3.125 4.123a1.365 1.365 0 0 0 2.04.143l8.523-8.429v4.804h2.708v-8.037c0-.74-.606-1.34-1.354-1.34h-8.125v2.68h4.856l-7.418 7.337-3.125-4.123a1.358 1.358 0 0 0-.988-.536 1.387 1.387 0 0 0-1.053.393l-8.61 8.514a15.903 15.903 0 0 1 2.408-16.383c5.678-6.852 15.897-7.854 22.826-2.238 6.927 5.616 7.94 15.724 2.263 22.576a16.273 16.273 0 0 1-1.68 1.745v-7.91h-2.708v9.866c-.868.5-1.775.914-2.708 1.242v-8.429h-2.709v9.129c-.894.151-1.8.229-2.708.23v-5.34h-2.708v5.123a16.27 16.27 0 0 1-2.709-.689v-7.113h-2.708v5.88a16.346 16.346 0 0 1-2.187-1.495l-1.721 2.07a19.116 19.116 0 0 0 21.287 1.873c9.137-5.057 12.4-16.483 7.287-25.521Z" fill="#39379F"/></g><defs><clipPath id="a"><path fill="#fff" transform="translate(24)" d="M0 0h65v64.292H0z"/></clipPath></defs></svg>
